svg/csv_file.svg

<svg id="Layer_1" data-name="Layer 1" xmlns="http://www.w3.org/2000/svg" width="24" height="24" viewBox="0 0 24 24">
  <path d="M15.9588,20.04552H4.00049V4.00389h6.97827v4.98h4.98V10h2.0517V8.0139L15.9588,5.96221,14.00049,4.00389l-1.99-1.99h-8a1.99728,1.99728,0,0,0-1.99,2l-.01,16a1.99735,1.99735,0,0,0,1.99,2h14.01v-2Z"/>
  <g>
    <polygon points="21.26 18.014 23.01 12.014 21.51 12.014 20.51 15.444 19.51 12.014 18.01 12.014 19.76 18.014 21.26 18.014"/>
    <path d="M10.0105,12.01392h-3a1.003,1.003,0,0,0-1,1v4a1.003,1.003,0,0,0,1,1h3a1.003,1.003,0,0,0,1-1v-1h-1.5v.5h-2v-3h2v.5h1.5v-1A1.003,1.003,0,0,0,10.0105,12.01392Z"/>
    <path d="M17.0105,13.52086v-1.507h-4a1,1,0,0,0-1,1v1.757a1,1,0,0,0,1,1h2.51v.743h-3.51v1.507h4a1,1,0,0,0,1-1v-1.757a1,1,0,0,0-1-1h-2.51v-.743Z"/>
  </g>
</svg>

<svg id="Layer_1" data-name="Layer 1" xmlns="http://www.w3.org/2000/svg" viewBox="0 0 24 24"><title>csv_file</title><path d="M16,20.05H4V4h7V9h5v1H18V8L16,6,14,4,12,2H4A2,2,0,0,0,2,4V20a2,2,0,0,0,2,2H18V20Z"/><polygon points="21.26 18.01 23.01 12.01 21.51 12.01 20.51 15.44 19.51 12.01 18.01 12.01 19.76 18.01 21.26 18.01"/><path d="M10,12H7a1,1,0,0,0-1,1v4a1,1,0,0,0,1,1h3a1,1,0,0,0,1-1V16H9.51v.5h-2v-3h2V14H11V13A1,1,0,0,0,10,12Z"/><path d="M17,13.52V12H13a1,1,0,0,0-1,1v1.76a1,1,0,0,0,1,1h2.51v.74H12V18h4a1,1,0,0,0,1-1V15.26a1,1,0,0,0-1-1H13.5v-.74Z"/></svg>
